X: 20
M: 6/4
L: 1/8
K: Am
e4 e2 d2 e2 g2 | e3 d (cB) A4 ][ g2 |
g4 g2 (g3 a) b2 | B3 A G2 B2 d4 |
e2 a2 a2 a3 g a2 | {g}b2 a (gf) e4 g2 |
g3 a g2 (g3 a) b2 | B3 A G2 B d3 d2 |
e2 e2 (dB) d3 e g2 | e3 d (cB) A4 |]
K:
K:

